X:1
T:Bobby Jack's Compliments to Mary Prentice
C:Jack, Bobby
S:George Meikle
S:Anselm Lingnau <anselm:strathspey.org> 2008-10-16
R:Jig
M:6/8
L:1/8
K:A
e |\
  A>cf e2A | a>fe f>ec | a>fe f>ec | B>=GB e>dB | 
  A>cf e2A | a>fe f>ec | a>Af e2c  | B>=GB A2  :| 
|: c/>d/ |\
  e>AA A>ce | f>dd d>fa | e>AA A>ce  | B>=GB e>dB | 
  e>AA A>ce | f>dd d>fa | A>ce B>=Ge | A>AA  A2  :|
